X:1
T:Title
%%score 1 2
L:1/8
M:3/4
K:F
V:1 treble nm="Bright Piano"
V:2 bass nm="Bright Piano"
V:1
 z2 z2[Q:1/4=100] C>[CF] | [FA]2 [FA]2 [FA]>[FA] | [EB]2 [EB]2 [EB]>[EB] | [Gc]3 G [EA]>[EB] | %4
 [FA]4 [CF]>[CE] | [CE]2 [B,D]2 [DF]>[B,D] | [B,D]2 [A,C]2 [CF][CA] | [Ec]3 [EB] [CE]>[CG] | %8
 [CF]4 [FA]>[FB] | [Fc]2 [Fc]2 [^Fd]>[FA] | [GB]2 [GB]2 [DG]>[DA] | [GB]3 [F=B] [Ec]>[EG] | %12
 [FA]4 [FA]>[EG] | F3 F [_EA][Ec] | [Dc]2 [DB]2 [DA]>[DG] | [CF]3 [CF] [B,F][B,E] | %16
[M:2/4] [A,F]4 |] %17
V:2
 z2 z2 [F,A,]>[F,A,] | [F,C]2 [F,C]2 [F,C]>[F,C] | [G,C]2 [G,C]2 [G,C]>[G,C] | %3
 [E,C]3 [E,C] [C,C]>[C,C] | [F,C]4 [A,,F,]>[A,,F,] | [B,,F,]2 [B,,F,]2 [B,,F,]>[D,F,] | %6
 F,2 [F,,F,]2 [F,A,]F, | [C,G,]3 [C,G,] [C,B,]>[C,B,] | [F,A,]4 F,>[F,G,] | %9
 [F,A,]2 [F,A,]2 [D,A,]>[D,D] | [G,D]2 [G,D]2 [G,B,]>[^F,A,] | [G,B,]3 [D,G,] [C,G,]>[C,C] | %12
 [F,C]4 [F,C]>[F,B,] | [F,A,]3 [F,A,] [F,C][F,A,] | [B,,F,]2 [B,,F,]2 [B,,B,]>[B,,B,] | %15
 [C,A,]3 [C,A,] [C,G,][C,G,] |[M:2/4] [F,,F,]4 |] %17

